icons/svg/tourist/memorial_stolperstein.svg

<?xml version="1.0" encoding="UTF-8" standalone="no"?>
<!-- Created with Inkscape (http://www.inkscape.org/) -->

<svg
   xmlns:dc="http://purl.org/dc/elements/1.1/"
   xmlns:cc="http://creativecommons.org/ns#"
   xmlns:rdf="http://www.w3.org/1999/02/22-rdf-syntax-ns#"
   xmlns:svg="http://www.w3.org/2000/svg"
   xmlns="http://www.w3.org/2000/svg"
   xmlns:sodipodi="http://sodipodi.sourceforge.net/DTD/sodipodi-0.dtd"
   xmlns:inkscape="http://www.inkscape.org/namespaces/inkscape"
   version="1.0"
   width="580"
   height="580"
   id="svg2"
   sodipodi:version="0.32"
   inkscape:version="0.91 r"
   sodipodi:docname="memorial_stolperstein.svg"
   inkscape:output_extension="org.inkscape.output.svg.inkscape">
  <metadata
     id="metadata10">
    <rdf:RDF>
      <cc:Work
         rdf:about="">
        <dc:format>image/svg+xml</dc:format>
        <dc:type
           rdf:resource="http://purl.org/dc/dcmitype/StillImage" />
        <cc:license
           rdf:resource="http://web.resource.org/cc/PublicDomain" />
        <dc:language>en</dc:language>
      </cc:Work>
    </rdf:RDF>
  </metadata>
  <sodipodi:namedview
     inkscape:window-height="1004"
     inkscape:window-width="1920"
     inkscape:pageshadow="2"
     inkscape:pageopacity="0.0"
     guidetolerance="10.0"
     gridtolerance="10.0"
     objecttolerance="10.0"
     borderopacity="1.0"
     bordercolor="#666666"
     pagecolor="#ffffff"
     id="base"
     showgrid="false"
     inkscape:zoom="0.25000001"
     inkscape:cx="502.23969"
     inkscape:cy="136.9737"
     inkscape:window-x="1680"
     inkscape:window-y="0"
     inkscape:current-layer="svg2"
     inkscape:window-maximized="1" />
  <defs
     id="defs4">
    <inkscape:perspective
       sodipodi:type="inkscape:persp3d"
       inkscape:vp_x="0 : 290 : 1"
       inkscape:vp_y="0 : 1000 : 0"
       inkscape:vp_z="580 : 290 : 1"
       inkscape:persp3d-origin="290 : 193.33333 : 1"
       id="perspective12" />
    <style
       type="text/css"
       id="style6">
   
    .fil0 {fill:#EF7900}
   
  </style>
    <inkscape:perspective
       id="perspective6807"
       inkscape:persp3d-origin="29.116032 : 19.410688 : 1"
       inkscape:vp_z="58.232063 : 29.116032 : 1"
       inkscape:vp_y="0 : 1000 : 0"
       inkscape:vp_x="0 : 29.116032 : 1"
       sodipodi:type="inkscape:persp3d" />
  </defs>
  <g
     id="g1327">
    <path
       d="M 66.275,1.768 C 24.94,1.768 1.704,23.139 1.704,66.804 L 1.704,516.927 C 1.704,557.771 22.598,579.156 63.896,579.156 L 515.92,579.156 C 557.227,579.156 578.149,558.84 578.149,516.927 L 578.149,66.804 C 578.149,24.203 557.227,1.768 514.627,1.768 C 514.624,1.768 66.133,1.625 66.275,1.768 z"
       style="fill:#111111;stroke:#eeeeee;stroke-width:3.40799999"
       id="path1329" />
  </g>
  <path
     style="fill:#ffffff"
     d="m 122.8418,80.011719 c -28.757003,0 -52.070316,23.311361 -52.070316,52.068361 l 0,315.83984 c 0,28.757 23.313313,52.06836 52.070316,52.06836 l 334.31836,0 c 28.757,0 52.06836,-23.31236 52.06836,-52.06836 l 0,-315.83984 c 10e-4,-28.757 -23.31136,-52.068361 -52.06836,-52.068361 z m 18.66601,50.824221 296.98438,0 0,55 -296.98438,0 z m 0,110.3599 296.98438,0 0,20 -296.98438,0 z m 0,57.7461 296.98438,0 0,20 -296.98438,0 z m 0,57.74804 296.98438,0 0,20 -296.98438,0 z m 0,57.7461 296.98438,0 0,20 -296.98438,0 z"
     id="path9"
     inkscape:connector-curvature="0"
     sodipodi:nodetypes="sssssscssccccccccccccccccccccccccc" />
</svg>

<svg width="580" height="580" viewBox="0 0 580 580" fill="none" xmlns="http://www.w3.org/2000/svg">
<g clip-path="url(#clip0)">
<path d="M66.2751 1.76815C24.9401 1.76815 1.7041 23.1391 1.7041 66.8041V516.927C1.7041 557.771 22.5981 579.156 63.8961 579.156H515.92C557.227 579.156 578.149 558.84 578.149 516.927V66.8041C578.149 24.2031 557.227 1.76815 514.627 1.76815C514.624 1.76815 66.1331 1.62515 66.2751 1.76815Z" fill="#111111" stroke="#EEEEEE" stroke-width="3.408"/>
<path d="M122.842 80.0117C94.0848 80.0117 70.7715 103.323 70.7715 132.08V447.92C70.7715 476.677 94.0848 499.988 122.842 499.988H457.16C485.917 499.988 509.229 476.676 509.229 447.92V132.08C509.23 103.323 485.917 80.0117 457.16 80.0117H122.842ZM141.508 130.836H438.492V185.836H141.508V130.836ZM141.508 241.196H438.492V261.196H141.508V241.196ZM141.508 298.942H438.492V318.942H141.508V298.942ZM141.508 356.69H438.492V376.69H141.508V356.69ZM141.508 414.436H438.492V434.436H141.508V414.436Z" fill="white"/>
</g>
<defs>
<clipPath id="clip0">
<path d="M0 0H580V580H0V0Z" fill="white"/>
</clipPath>
</defs>
</svg>
